symbolic/64x64/apps/skydrive.svg

<svg xmlns="http://www.w3.org/2000/svg" width="64" height="64" version="1">
 <path style="opacity:.2" d="m4.0742 29.3c-0.0194 0.266-0.0742 0.52-0.0742 0.79 0 6.024 4.9248 10.91 11 10.91h23.376c5.314 0 9.624-4.276 9.624-9.546 0-0.356-0.06-0.694-0.098-1.04-0.492 4.814-4.542 8.586-9.526 8.586h-23.376c-5.6624 0-10.318-4.244-10.926-9.7z"/>
 <path style="fill:#a1bde8" d="m26 10c-5.696 0-10.545 3.458-12.633 8.352-5.3014 0.782-9.367 5.264-9.367 10.738 0 6.026 4.9248 10.91 11 10.91h23.376c5.314 0 9.624-4.274 9.624-9.546 0-4.9-3.714-8.914-8.508-9.46-1.25-6.254-6.818-10.994-13.492-10.994z"/>
 <path style="opacity:.1;fill:#ffffff" d="m26 10c-5.696 0-10.545 3.457-12.633 8.352-5.3014 0.781-9.367 5.262-9.367 10.738 0 0.145 0.0185 0.286 0.0254 0.43 0.2725-5.213 4.2266-9.414 9.3416-10.168 2.088-4.895 6.937-8.352 12.633-8.352 6.674 0 12.242 4.741 13.492 10.996 4.569 0.52 8.148 4.191 8.475 8.775 0.01-0.106 0.033-0.209 0.033-0.318 0-4.9-3.714-8.911-8.508-9.457-1.25-6.255-6.818-10.996-13.492-10.996z"/>
 <path style="opacity:.2" d="m16.074 43.3c-0.019 0.266-0.074 0.52-0.074 0.79 0 6.024 4.924 10.91 11 10.91h23.376c5.314 0 9.624-4.276 9.624-9.546 0-0.356-0.06-0.694-0.098-1.04-0.492 4.814-4.542 8.586-9.526 8.586h-23.376c-5.662 0-10.318-4.244-10.926-9.7z"/>
 <path style="fill:#5481c5" d="m38 24c-5.6954 0-10.545 3.458-12.633 8.3522-5.302 0.782-9.368 5.264-9.368 10.738 0 6.026 4.924 10.91 11 10.91h23.376c5.314 0 9.624-4.274 9.624-9.546 0-4.9-3.714-8.914-8.508-9.46-1.25-6.254-6.818-10.994-13.492-10.994z"/>
 <path style="opacity:.1;fill:#ffffff" d="m38 24c-5.695 0-10.545 3.457-12.633 8.352-5.302 0.782-9.367 5.264-9.367 10.738 0 0.161 0.016 0.317 0.023 0.476 0.252-5.232 4.213-9.458 9.344-10.214 2.088-4.895 6.938-8.352 12.633-8.352 6.674 0 12.24 4.74 13.49 10.994 4.621 0.526 8.229 4.277 8.485 8.936 0.008-0.159 0.025-0.314 0.025-0.475 0-4.9-3.716-8.915-8.51-9.461-1.25-6.254-6.816-10.994-13.49-10.994z"/>
</svg>

<svg xmlns="http://www.w3.org/2000/svg" width="64" height="64" version="1"><path style="opacity:.2" d="M4.074 29.3c-.02.266-.074.52-.074.79C4 36.114 8.925 41 15 41h23.376C43.69 41 48 36.724 48 31.454c0-.356-.06-.694-.098-1.04A9.561 9.561 0 0 1 38.376 39H15c-5.662 0-10.318-4.244-10.926-9.7z"/><path style="fill:#a1bde8" d="M26 10c-5.696 0-10.545 3.458-12.633 8.352C8.066 19.134 4 23.616 4 29.09 4 35.116 8.925 40 15 40h23.376C43.69 40 48 35.726 48 30.454c0-4.9-3.714-8.914-8.508-9.46C38.242 14.74 32.674 10 26 10z"/><path style="opacity:.1;fill:#fff" d="M26 10c-5.696 0-10.545 3.457-12.633 8.352C8.066 19.133 4 23.614 4 29.09c0 .145.018.286.025.43.273-5.213 4.227-9.414 9.342-10.168C15.455 14.457 20.304 11 26 11c6.674 0 12.242 4.741 13.492 10.996 4.569.52 8.148 4.191 8.475 8.775.01-.106.033-.209.033-.318 0-4.9-3.714-8.911-8.508-9.457C38.242 14.741 32.674 10 26 10z"/><path style="opacity:.2" d="M16.074 43.3c-.019.266-.074.52-.074.79C16 50.114 20.924 55 27 55h23.376C55.69 55 60 50.724 60 45.454c0-.356-.06-.694-.098-1.04A9.561 9.561 0 0 1 50.376 53H27c-5.662 0-10.318-4.244-10.926-9.7z"/><path style="fill:#5481c5" d="M38 24c-5.695 0-10.545 3.458-12.633 8.352-5.302.782-9.368 5.264-9.368 10.738 0 6.026 4.924 10.91 11 10.91h23.376c5.314 0 9.624-4.274 9.624-9.546 0-4.9-3.714-8.914-8.508-9.46C50.241 28.74 44.673 24 37.999 24z"/><path style="opacity:.1;fill:#fff" d="M38 24c-5.695 0-10.545 3.457-12.633 8.352C20.065 33.134 16 37.616 16 43.09c0 .161.016.317.023.476.252-5.232 4.213-9.458 9.344-10.214C27.455 28.457 32.305 25 38 25c6.674 0 12.24 4.74 13.49 10.994 4.621.526 8.229 4.277 8.485 8.936.008-.159.025-.314.025-.475 0-4.9-3.716-8.915-8.51-9.461C50.24 28.74 44.674 24 38 24z"/></svg>
